components/icon/svg/24/action_alarm-add.svg

<?xml version="1.0" encoding="UTF-8"?>
<svg width="24px" height="24px" viewBox="0 0 24 24" version="1.1" xmlns="http://www.w3.org/2000/svg" xmlns:xlink="http://www.w3.org/1999/xlink">
    <!-- Generator: Sketch 64 (93537) - https://sketch.com -->
    <title>ic-db_action_alarm-add_24</title>
    <desc>Created with Sketch.</desc>
    <g id="Symbols:Icon" stroke="none" stroke-width="1" fill="none" fill-rule="evenodd">
        <g id="24dp-Icon/Action/Alarm-Add" fill="#282D37">
            <path d="M17.25,3 C19.3125,3 21,4.6562 21,6.75 C21,7.875 20.5,8.9062 19.6562,9.625 C19.875,10.375 20,11.1562 20,11.9688 C20,13.875 19.3438,15.625 18.2188,17.0312 L18.2188,17.0312 L19.8438,19.4375 C19.9375,19.5938 20,19.8125 20,20 C20,20.5312 19.5625,21 19,21 C18.6875,21 18.375,20.8438 18.1875,20.5625 L18.1875,20.5625 L16.75,18.4062 C15.4062,19.4062 13.7812,20 12,20 C10.1875,20 8.5625,19.4062 7.2188,18.4062 L7.2188,18.4062 L5.7812,20.5625 C5.5938,20.8438 5.2812,21 4.9375,21 C4.4062,21 3.9375,20.5625 3.9375,20 C3.9375,19.8125 4,19.625 4.125,19.4375 L4.125,19.4375 L5.75,17 C4.625,15.625 3.9688,13.875 3.9688,11.9688 C3.9688,11.1562 4.0938,10.3438 4.3125,9.5938 C3.5,8.9062 3,7.8438 3,6.75 C3,4.6875 4.6875,3 6.75,3 C7.875,3 8.9062,3.5 9.5938,4.3125 C10.3438,4.0938 11.1562,3.9375 12,3.9375 C12.8125,3.9375 13.625,4.0938 14.4062,4.3125 C15.0938,3.5 16.125,3 17.25,3 Z M12,5.9375 C8.6562,5.9375 5.9688,8.6562 5.9688,11.9688 C5.9688,15.2812 8.6562,18 12,18 C15.3125,18 18,15.2812 18,11.9688 C18,8.6562 15.3125,5.9375 12,5.9375 Z M17.25,5 C16.9062,5 16.5938,5.0938 16.3438,5.25 C17.3125,5.875 18.125,6.6875 18.75,7.6562 C18.9062,7.375 19,7.0625 19,6.75 C19,5.7812 18.2188,5 17.25,5 Z M6.75,5 C5.7812,5 5,5.7812 5,6.75 C5,7.0625 5.0938,7.375 5.25,7.6562 C5.875,6.6875 6.6875,5.8438 7.6562,5.25 C7.375,5.0625 7.0625,5 6.75,5 Z M12,8 C12.5625,8 13,8.5 13,9 L13,11 L15,11 C15.5625,11 16,11.4374 16,12 C16,12.5624 15.5625,13 15,13 L13,13 L13,15 C13,15.5312 12.5312,16 12,16 C11.4375,16 11,15.5312 11,15 L11,13 L9,12.9688 C8.4375,12.9688 8,12.5624 8,12 C8,11.4374 8.4375,11 9,11 L11,11 L11,9 C11,8.5 11.4375,8 12,8 Z" id="🎨-Color"></path>
        </g>
    </g>
</svg>

<svg width="24" height="24" xmlns="http://www.w3.org/2000/svg"><path d="M17.25 3A3.74 3.74 0 0121 6.75a3.76 3.76 0 01-1.344 2.875c.219.75.344 1.531.344 2.344a8.052 8.052 0 01-1.781 5.062l1.625 2.407c.093.156.156.375.156.562 0 .531-.438 1-1 1a.982.982 0 01-.813-.438l-1.437-2.156a7.922 7.922 0 01-9.531 0L5.78 20.563a.996.996 0 01-.843.437c-.532 0-1-.438-1-1 0-.188.062-.375.187-.563L5.75 17a7.901 7.901 0 01-1.781-5.031c0-.813.125-1.625.344-2.375A3.772 3.772 0 013 6.75 3.761 3.761 0 016.75 3c1.125 0 2.156.5 2.844 1.313.75-.22 1.562-.375 2.406-.375.813 0 1.625.156 2.406.374A3.722 3.722 0 0117.25 3zM12 5.938a6.035 6.035 0 00-6.031 6.03A6.035 6.035 0 0012 18c3.313 0 6-2.719 6-6.031 0-3.313-2.688-6.031-6-6.031zM17.25 5c-.344 0-.656.094-.906.25a8.032 8.032 0 012.406 2.406c.156-.281.25-.593.25-.906C19 5.781 18.219 5 17.25 5zM6.75 5C5.781 5 5 5.781 5 6.75c0 .313.094.625.25.906.625-.968 1.438-1.812 2.406-2.406C7.375 5.062 7.063 5 6.75 5zM12 8c.563 0 1 .5 1 1v2h2c.563 0 1 .437 1 1 0 .562-.438 1-1 1h-2v2c0 .531-.469 1-1 1-.563 0-1-.469-1-1v-2l-2-.031c-.563 0-1-.407-1-.969 0-.563.438-1 1-1h2V9c0-.5.438-1 1-1z" fill="#282D37" fill-rule="evenodd"/></svg>
